X:193
T: TOENNEKEN TOENNEKEN OP DEN DRAG
N: K2502
O: Europa, Mitteleuropa, Deutschland, Niederrhein
R: Kinder - Lied, Spiel
M: 2/4
L: 1/16
K: G
 | GGG2AAA2 | B2A2G4 |
G2G2A2A2 | B4G2z2 |
B2B2A2G2 | B2B2B4 |
A2A2A2B2 | G2G2G4

@@@ Tune index: 7530
